src/lib/images/icons/medium.svg

<svg viewBox="0 0 38 30" fill="none" xmlns="http://www.w3.org/2000/svg">
<path d="M4.80687 6.12C4.82985 5.89175 4.79908 5.66129 4.71703 5.44705C4.63499 5.23282 4.50394 5.04077 4.33437 4.88625L0.831875 0.635625V0H11.7031L20.1069 18.5719L27.4944 0H37.8594V0.635625L34.865 3.525C34.7381 3.62296 34.6402 3.75355 34.5818 3.90282C34.5233 4.05208 34.5065 4.21442 34.5331 4.3725V25.6238C34.5065 25.7818 34.5233 25.9442 34.5818 26.0934C34.6402 26.2427 34.7381 26.3733 34.865 26.4713L37.79 29.3625V30H23.0844V29.3644L26.1125 26.4019C26.4106 26.1019 26.4106 26.0138 26.4106 25.5563V8.3775L17.9881 29.9287H16.8519L7.04562 8.3775V22.8225C6.965 23.43 7.16562 24.0412 7.58937 24.48L11.5287 29.295V29.9287H0.359375V29.295L4.29687 24.48C4.50521 24.2626 4.65983 23.9995 4.74838 23.7117C4.83693 23.4239 4.85696 23.1194 4.80687 22.8225V6.12Z" fill="#fff"/>
</svg>

<svg viewBox="0 0 38 30" fill="none" xmlns="http://www.w3.org/2000/svg"><path d="M4.807 6.12a1.47 1.47 0 0 0-.473-1.234L.832.636V0h10.871l8.404 18.572L27.494 0H37.86v.636l-2.994 2.889a.884.884 0 0 0-.332.847v21.252a.884.884 0 0 0 .332.847l2.925 2.892V30H23.084v-.636l3.029-2.962c.298-.3.298-.388.298-.846V8.377L17.988 29.93h-1.136L7.046 8.377v14.446c-.081.607.12 1.218.543 1.657l3.94 4.815v.634H.359v-.634l3.938-4.815a1.931 1.931 0 0 0 .51-1.657V6.12z" fill="#fff"/></svg>
